X:314
T:The Woods Of Caol Rua
R:jig
M:6/8
L:1/8
K:Dmix
ABG ADD|cBc dcA|~G3 GFG|ABc BAG|
ABG ADD|cBc dcA|~G3 AGE|DED DEG:||
Add age|ded dcB|~c3 ABc|Adc ABc|
d^cd age|ded dcA|~G3 AGE| DED DEG:||
A2 d c2 d|Adc AGE|Add cdA|G3 GFG|
A2 d c2 d|Add dcA|G3 AGE|DED DEG:||

